svgs/solid/stroopwafel.svg

<svg xmlns="http://www.w3.org/2000/svg" viewBox="0 0 512 512"><!-- Font Awesome Pro 6.0.0-alpha2 by @fontawesome - https://fontawesome.com License - https://fontawesome.com/license (Commercial License) --><path d="M188.125 210.75L142.875 256L188.125 301.25L233.375 256L188.125 210.75ZM301.25 188.125L256 142.875L210.75 188.125L256 233.375L301.25 188.125ZM210.75 323.875L256 369.125L301.25 323.875L256 278.625L210.75 323.875ZM256 16C123.461 16 16 123.461 16 256S123.461 496 256 496S496 388.539 496 256S388.539 16 256 16ZM442.625 295.625L431.375 306.875C428.25 310 423.125 310 420 306.875L391.75 278.625L346.5 323.875L380.5 357.75L397.375 340.875C400.5 337.75 405.625 337.75 408.75 340.875L420 352.125C423.125 355.25 423.125 360.375 420 363.5L403.125 380.375L420 397.375C423.125 400.5 423.125 405.625 420 408.75L408.75 420C405.625 423.125 400.5 423.125 397.375 420L380.5 403L363.5 420C360.375 423.125 355.25 423.125 352.125 420L340.875 408.75C337.75 405.625 337.75 400.5 340.875 397.375L357.875 380.375L323.875 346.5L278.625 391.75L306.875 420C310 423.125 310 428.25 306.875 431.375L295.625 442.625C292.5 445.75 287.375 445.75 284.25 442.625L256 414.375L227.75 442.625C224.625 445.75 219.5 445.75 216.375 442.625L205.125 431.375C202 428.25 202 423.125 205.125 420L233.375 391.75L188.125 346.5L154.25 380.5L171.125 397.375C174.25 400.5 174.25 405.625 171.125 408.75L159.875 420C156.75 423.125 151.625 423.125 148.5 420L131.625 403.125L114.625 420C111.5 423.125 106.375 423.125 103.25 420L92 408.75C88.875 405.625 88.875 400.5 92 397.375L109 380.5L92 363.5C88.875 360.375 88.875 355.25 92 352.125L103.25 340.875C106.375 337.75 111.5 337.75 114.625 340.875L131.625 357.875L165.5 323.875L120.25 278.625L92 306.875C88.875 310 83.75 310 80.625 306.875L69.375 295.625C66.25 292.5 66.25 287.375 69.375 284.25L97.625 256L69.375 227.75C66.25 224.625 66.25 219.5 69.375 216.375L80.625 205.125C83.75 202 88.875 202 92 205.125L120.25 233.375L165.5 188.125L131.5 154.125L114.625 171.125C111.5 174.25 106.375 174.25 103.25 171.125L92 159.875C88.875 156.75 88.875 151.625 92 148.5L108.875 131.5L92 114.625C88.875 111.5 88.875 106.375 92 103.25L103.25 92C106.375 88.875 111.5 88.875 114.625 92L131.5 109L148.5 92C151.625 88.875 156.75 88.875 159.875 92L171.125 103.25C174.25 106.375 174.25 111.5 171.125 114.625L154.125 131.5L188.125 165.5L233.375 120.25L205.125 92C202 88.875 202 83.75 205.125 80.625L216.375 69.375C219.5 66.25 224.625 66.25 227.75 69.375L256 97.625L284.25 69.375C287.375 66.25 292.5 66.25 295.625 69.375L306.875 80.625C310 83.75 310 88.875 306.875 92L278.625 120.25L323.875 165.5L357.875 131.5L340.875 114.625C337.75 111.5 337.75 106.375 340.875 103.25L352.125 92C355.25 88.875 360.375 88.875 363.5 92L380.5 108.875L397.375 92C400.5 88.875 405.625 88.875 408.75 92L420 103.25C423.125 106.375 423.125 111.5 420 114.625L403 131.5L420 148.5C423.125 151.625 423.125 156.75 420 159.875L408.75 171.125C405.625 174.25 400.5 174.25 397.375 171.125L380.5 154.125L346.5 188.125L391.75 233.375L420 205.125C423.125 202 428.25 202 431.375 205.125L442.625 216.375C445.75 219.5 445.75 224.625 442.625 227.75L414.375 256L442.625 284.25C445.75 287.375 445.75 292.5 442.625 295.625ZM278.625 256L323.875 301.25L369.125 256L323.875 210.75L278.625 256Z"/></svg>

<svg xmlns="http://www.w3.org/2000/svg" viewBox="0 0 512 512"><!-- Font Awesome Pro 5.15.1 by @fontawesome - https://fontawesome.com License - https://fontawesome.com/license (Commercial License) --><path d="M188.12 210.74L142.86 256l45.25 45.25L233.37 256l-45.25-45.26zm113.13-22.62L256 142.86l-45.25 45.25L256 233.37l45.25-45.25zm-90.5 135.76L256 369.14l45.26-45.26L256 278.63l-45.25 45.25zM256 0C114.62 0 0 114.62 0 256s114.62 256 256 256 256-114.62 256-256S397.38 0 256 0zm186.68 295.6l-11.31 11.31c-3.12 3.12-8.19 3.12-11.31 0l-28.29-28.29-45.25 45.25 33.94 33.94 16.97-16.97c3.12-3.12 8.19-3.12 11.31 0l11.31 11.31c3.12 3.12 3.12 8.19 0 11.31l-16.97 16.97 16.97 16.97c3.12 3.12 3.12 8.19 0 11.31l-11.31 11.31c-3.12 3.12-8.19 3.12-11.31 0l-16.97-16.97-16.97 16.97c-3.12 3.12-8.19 3.12-11.31 0l-11.31-11.31c-3.12-3.12-3.12-8.19 0-11.31l16.97-16.97-33.94-33.94-45.26 45.26 28.29 28.29c3.12 3.12 3.12 8.19 0 11.31l-11.31 11.31c-3.12 3.12-8.19 3.12-11.31 0L256 414.39l-28.29 28.29c-3.12 3.12-8.19 3.12-11.31 0l-11.31-11.31c-3.12-3.12-3.12-8.19 0-11.31l28.29-28.29-45.25-45.26-33.94 33.94 16.97 16.97c3.12 3.12 3.12 8.19 0 11.31l-11.31 11.31c-3.12 3.12-8.19 3.12-11.31 0l-16.97-16.97-16.97 16.97c-3.12 3.12-8.19 3.12-11.31 0l-11.31-11.31c-3.12-3.12-3.12-8.19 0-11.31l16.97-16.97-16.97-16.97c-3.12-3.12-3.12-8.19 0-11.31l11.31-11.31c3.12-3.12 8.19-3.12 11.31 0l16.97 16.97 33.94-33.94-45.25-45.25-28.29 28.29c-3.12 3.12-8.19 3.12-11.31 0L69.32 295.6c-3.12-3.12-3.12-8.19 0-11.31L97.61 256l-28.29-28.29c-3.12-3.12-3.12-8.19 0-11.31l11.31-11.31c3.12-3.12 8.19-3.12 11.31 0l28.29 28.29 45.25-45.26-33.94-33.94-16.97 16.97c-3.12 3.12-8.19 3.12-11.31 0l-11.31-11.31c-3.12-3.12-3.12-8.19 0-11.31l16.97-16.97-16.97-16.97c-3.12-3.12-3.12-8.19 0-11.31l11.31-11.31c3.12-3.12 8.19-3.12 11.31 0l16.97 16.97 16.97-16.97c3.12-3.12 8.19-3.12 11.31 0l11.31 11.31c3.12 3.12 3.12 8.19 0 11.31l-16.97 16.97 33.94 33.94 45.26-45.25-28.29-28.29c-3.12-3.12-3.12-8.19 0-11.31l11.31-11.31c3.12-3.12 8.19-3.12 11.31 0L256 97.61l28.29-28.29c3.12-3.12 8.19-3.12 11.31 0l11.31 11.31c3.12 3.12 3.12 8.19 0 11.31l-28.29 28.29 45.26 45.25 33.94-33.94-16.97-16.97c-3.12-3.12-3.12-8.19 0-11.31l11.31-11.31c3.12-3.12 8.19-3.12 11.31 0l16.97 16.97 16.97-16.97c3.12-3.12 8.19-3.12 11.31 0l11.31 11.31c3.12 3.12 3.12 8.19 0 11.31l-16.97 16.97 16.97 16.97c3.12 3.12 3.12 8.19 0 11.31l-11.31 11.31c-3.12 3.12-8.19 3.12-11.31 0l-16.97-16.97-33.94 33.94 45.25 45.26 28.29-28.29c3.12-3.12 8.19-3.12 11.31 0l11.31 11.31c3.12 3.12 3.12 8.19 0 11.31L414.39 256l28.29 28.28a8.015 8.015 0 0 1 0 11.32zM278.63 256l45.26 45.25L369.14 256l-45.25-45.26L278.63 256z"/></svg>
